X:1
T:Croppy Boy (II)
M:3/4
L:1/8
K:F
 z4 z C/2C/2| FG A2F-E| DD D3 G| GG E/2 G3/2- GE| CC C2 z2| A3.99999962500005/5.99999925000009 B3.99999962500005/5.99999925000009 c3.99999962500005/5.99999925000009 F3G/2-A/2|\
 Bc A3 F/2F/2| GAB-G EC| FF F3 z|
